**kern	**kern	**kern	**kern
*MM76	*MM76	*MM76	*MM76
*k[f#]	*k[f#]	*k[f#]	*k[f#]
*M4/4	*M4/4	*M4/4	*M4/4
*tb64	*tb64	*tb64	*tb64
=1	=1	=1	=1
1r	1r	1r	8g
.	.	.	16b
.	.	.	16a
.	.	.	8b
.	.	.	8g
.	.	.	8a
.	.	.	8d
.	.	.	4dd
=2	=2	=2	=2
1r	1r	1r	8g
.	.	.	16b
.	.	.	16a
.	.	.	8b
.	.	.	8g
.	.	.	8a
.	.	.	8d
.	.	.	4dd
=3	=3	=3	=3
1r	1r	1r	8a
.	.	.	16cc
.	.	.	16b
.	.	.	8cc
.	.	.	8a
.	.	.	8b
.	.	.	8e
.	.	.	4ee
=4	=4	=4	=4
1r	1r	1r	8a
.	.	.	16cc
.	.	.	16b
.	.	.	8cc
.	.	.	8a
.	.	.	8b
.	.	.	8e
.	.	.	4ee
=5	=5	=5	=5
1r	1r	1r	8cc
.	.	.	8ee
.	.	.	8a
.	.	.	8cc
.	.	.	8f#
.	.	.	8a
.	.	.	8d
.	.	.	8cc
=6	=6	=6	=6
1r	1r	1r	8b
.	.	.	8dd
.	.	.	8g
.	.	.	8b
.	.	.	8e
.	.	.	8g
.	.	.	8c#
.	.	.	8a
=7	=7	=7	=7
1r	1r	8d	8f#
.	.	16f#	8a
.	.	16e	.
.	.	8f#	8dd
.	.	8d	8ff#
.	.	8e	8gg
.	.	8A	8ee
.	.	4a	8cc#
.	.	.	8ee
=8	=8	=8	=8
1r	1r	8d	8ff#
.	.	16f#	8aa
.	.	16e	.
.	.	8f#	8dd
.	.	8d	8ff#
.	.	8e	16gg
.	.	.	16ff#
.	.	8A	16ee
.	.	.	16dd
.	.	4a	16cc#
.	.	.	16dd#
.	.	.	16ee
.	.	.	16ff#
=9	=9	=9	=9
1r	1r	8e	8gg
.	.	16g	8bb
.	.	16f#	.
.	.	8g	8ee
.	.	8e	8gg
.	.	8f#	8aa
.	.	8B	8ff#
.	.	4b	8dd#
.	.	.	8ff#
=10	=10	=10	=10
1r	1r	8e	8gg
.	.	16g	8b
.	.	16f#	.
.	.	8g	8e
.	.	8e	8g
.	.	8f#	8a
.	.	8B	8f#
.	.	4d#	8b
.	.	.	8ff#
=11	=11	=11	=11
1r	1r	8g	8ee
.	.	8b	16gg
.	.	.	16ff#
.	.	8e	8gg
.	.	8g	8ee
.	.	8c#	8a
.	.	8e	16cc#
.	.	.	16b
.	.	8A	8cc#
.	.	8g	8a
=12	=12	=12	=12
1r	1r	8f#	8dd
.	.	8a	16ff#
.	.	.	16ee
.	.	8d	8ff#
.	.	8f#	8dd
.	.	8B	8g#
.	.	8d	16b
.	.	.	16a
.	.	8G#	8b
.	.	8e	8g#
=13	=13	=13	=13
1r	1r	16c	8a
.	.	16d	.
.	.	16e	8g#
.	.	16d	.
.	.	16c	8a
.	.	16d	.
.	.	16c	8b
.	.	16B	.
.	.	8A	16cc
.	.	.	16b
.	.	8g	16a
.	.	.	16b
.	.	8f#	16cc
.	.	.	16b
.	.	8d	16cc
.	.	.	16dd
=14	=14	=14	=14
1r	8G	8g	8b
.	16B	16g	4dd
.	16A	16f#	.
.	8B	8g	.
.	8G	8b	[8gg
.	8A	4cc	16gg]
.	.	.	16gg
.	8D	.	16ff#
.	.	.	16ee
.	4d	8a	16ff#
.	.	.	16ee
.	.	8f#	16dd
.	.	.	16cc
=15	=15	=15	=15
1r	8G	4.g	8b
.	16B	.	16dd
.	16A	.	16cc
.	8B	.	8dd
.	8G	8b	[8gg
.	8A	4cc	16gg]
.	.	.	16gg
.	8D	.	16ff#
.	.	.	16ee
.	4d	8a	8ff#
.	.	8g#	8b
=16	=16	=16	=16
1r	8A	8a	8cc
.	16c	16a	4ee
.	16B	16g#	.
.	8c	8a	.
.	8A	8cc	[8aa
.	8B	4b	16aa]
.	.	.	16aa
.	8E	.	16gg#
.	.	.	16ff#
.	4e	8b	16gg#
.	.	.	16ff#
.	.	8g#	16ee
.	.	.	16dd
=17	=17	=17	=17
1r	8A	4.a	8cc
.	16c	.	16ee
.	16B	.	16dd
.	8c	.	8ee
.	8A	8cc	[8aa
.	8B	4dd	16aa]
.	.	.	16aa
.	8E	.	16gg#
.	.	.	16ff#
.	4e	8b	8gg#
.	.	8g#	[8bb
=18	=18	=18	=18
1r	8c	8ee	8bb]
.	8e	8b	16aa
.	.	.	16gg#
.	8A	8cc	[4aa
.	8c	[8ee	.
.	8F	8ee]	2aa_
.	8A	16dd	.
.	.	16cc#	.
.	8D	8dd	.
.	8c	8ff#	.
=19	=19	=19	=19
1r	8B	8dd	8aa]
.	8d	8a	16gg
.	.	.	16ff#
.	8G	8b	[4gg
.	8B	[8dd	.
.	8E	8dd]	2gg]
.	8G	16cc#	.
.	.	16b	.
.	8C#	8a	.
.	8A	8cc#	.
=20	=20	=20	=20
8D	4d	8a	4ff#
16F#	.	16a	.
16E	.	16g	.
8F#	8r	4a	8r
8D	[8d	.	8ff#
8E	8d]	8g	8gg
8AA	16c#	[8a	16ee
.	16B	.	16dd
4A	16c#	4a_	16ee
.	16d	.	16ff#
.	16B	.	16dd
.	16c#	.	16ee
=21	=21	=21	=21
8D	8d	8a]	8ff#
16F#	8r	8r	16dd
16E	.	.	16cc#
8F#	8r	8r	8dd
8D	[8d	8a	8ff#
8E	8d]	8g#	4ee
8AA	16c#	16a	.
.	16B	16g#	.
4A	8c#	8a	8r
.	8d#	[8b	8ff#
=22	=22	=22	=22
8E	4e	8b]	4gg
16G	.	16b	.
16F#	.	16a	.
8G	8r	4b	8r
8E	[8e	.	8gg
8F#	8e]	8a	8aa
8BB	16d#	[8b	16ff#
.	16c#	.	16ee
4B	16d#	4b_	16ff#
.	16e	.	16gg
.	16c#	.	16ee
.	16d#	.	16ff#
=23	=23	=23	=23
8E	4e	4b]	8gg
16G	.	.	16ee
16F#	.	.	16dd#
8G	8r	8r	8ee
8E	[8e	8b	8gg
8F#	8e]	8a#	4.ff#
8BB	16d#	16b	.
.	16c#	16a#	.
4B	8d#	8b	.
.	8f#	8b	8dd#
=24	=24	=24	=24
8G	8e	2b	8ee
8B	8f#	.	8dd#
8E	16g	.	[4ee
.	16f#	.	.
8G	16e	.	.
.	16d	.	.
8C#	[4e	8a	16ee]
.	.	.	16dd
8E	.	8g#	16cc#
.	.	.	16b
8AA	8e]	16a	4cc#
.	.	16g	.
8G	8A	16f#	.
.	.	16e	.
=25	=25	=25	=25
8F#	8d	8a	8dd
8A	8e	8g	8cc#
8D	16f#	8f#	[4dd
.	16e	.	.
8F#	16d	8a	.
.	16c	.	.
8BB	8d	4g#	16dd]
.	.	.	16cc
8D	8f	.	16b
.	.	.	16a
8GG#	16e	8e	4b
.	16d	.	.
8E	16c	8g#	.
.	16B	.	.
=26	=26	=26	=26
16AA	4c	4e	4a
16A	.	.	.
16G	.	.	.
16A	.	.	.
16F#	8r	8r	8r
16G	.	.	.
16E	8c#	8g	8a
16F#	.	.	.
16D	4d	4f#	4a
16E	.	.	.
16C	.	.	.
16D	.	.	.
16BB	8d	8g	8dd
16C	.	.	.
16AA	8d	8f#	8cc
16BB	.	.	.
=27	=27	=27	=27
8GG	8d	8g	8b
8r	8r	16b	8dd
.	.	16a	.
4r	4r	8b	8gg
.	.	8g	8b
2r	2r	8a	16cc
.	.	.	16gg
.	.	8d	16ff#
.	.	.	16ee
.	.	4dd	8ff#
.	.	.	8aa
=28	=28	=28	=28
1r	1r	8g	8bb
.	.	16b	16dd
.	.	16a	16cc
.	.	8b	8dd
.	.	8g	8bb
.	.	8a	16ccc
.	.	.	16bb
.	.	8d	16aa
.	.	.	16gg
.	.	4dd	16ff#
.	.	.	16ee
.	.	.	16ff#
.	.	.	16gg#
=29	=29	=29	=29
1r	1r	8a	8aa
.	.	16cc	16ee
.	.	16b	16dd
.	.	8cc	8ee
.	.	8a	8cc
.	.	8b	16dd
.	.	.	16aa
.	.	8e	16gg#
.	.	.	16ff#
.	.	4ee	8gg#
.	.	.	8bb
=30	=30	=30	=30
1r	1r	8a	8ccc
.	.	16cc	16aa
.	.	16b	16gg#
.	.	8cc	8aa
.	.	8a	8ccc
.	.	8b	8dd#
.	.	8e	16ee
.	.	.	16ff#
.	.	4ee	16gg#
.	.	.	16aa
.	.	.	16ff#
.	.	.	16gg#
=31	=31	=31	=31
1r	1r	8cc	8aa
.	.	8ee	16ccc
.	.	.	16bb
.	.	8a	16ccc
.	.	.	16bb
.	.	8cc	16aa
.	.	.	16gg
.	.	8f#	8aa
.	.	8a	16ff#
.	.	.	16ee
.	.	8d	16ff#
.	.	.	16gg
.	.	8cc	16ee
.	.	.	16ff#
=32	=32	=32	=32
1r	1r	8b	8gg
.	.	8dd	16bb
.	.	.	16aa
.	.	8g	16bb
.	.	.	16aa
.	.	8b	16gg
.	.	.	16ff#
.	.	8e	8gg
.	.	8g	16ee
.	.	.	16dd
.	.	8c#	16ee
.	.	.	16ff#
.	.	8a	16dd
.	.	.	16ee
=33	=33	=33	=33
8D	1r	4a	8ff#
16F#	.	.	16aa
16E	.	.	16gg
8F#	.	4dd	8aa
8D	.	.	8ff#
8E	.	8cc#	8gg
8AA	.	8dd	8ff#
4A	.	4cc#	8ff#
.	.	.	8ee
=34	=34	=34	=34
8D	1r	8dd	8ff#
16F#	.	16a	16dd
16E	.	16g	16cc#
8F#	.	8a	4dd
8D	.	8f#	.
8E	.	8g	8cc#
8AA	.	8f#	8dd
4A	.	8e	8cc#
.	.	8f#	8dd#
=35	=35	=35	=35
8E	1r	8g	2ee
16G	.	16b	.
16F#	.	16a	.
8G	.	8b	.
8E	.	8g	.
8F#	.	8a	8dd#
8BB	.	8g	8ee
4B	.	8g	8ee
.	.	8f#	8dd#
=36	=36	=36	=36
8E	1r	2e	8gg
16G	.	.	16bb
16F#	.	.	16aa
8G	.	.	8bb
8E	.	.	8gg
8F#	.	8d#	8aa
8BB	.	8e	8gg
4B	.	8e	8gg
.	.	8d#	8ff#
=37	=37	=37	=37
8G	1r	[2e	16bb
.	.	.	16aa
8B	.	.	16gg
.	.	.	16ff#
8E	.	.	16gg
.	.	.	16ff#
8G	.	.	16ee
.	.	.	16dd
8C#	.	16e]	8ee
.	.	16d	.
8E	.	16c#	8g#
.	.	16B	.
8AA	.	16c#	8a
.	.	16B	.
8A	.	16A	8cc#
.	.	16G	.
=38	=38	=38	=38
8F#	1r	8A	16aa
.	.	.	16gg
8A	.	8c#	16ff#
.	.	.	16ee
8D	.	8d	16ff#
.	.	.	16ee
8F#	.	8A	16dd
.	.	.	16cc
8BB	.	16d	8dd
.	.	16c	.
8D	.	16B	8f
.	.	16A	.
8GG#	.	16B	8e
.	.	16A	.
8E	.	16G#	8b
.	.	16F#	.
=39	=39	=39	=39
4AA	1r	8e	8cc
.	.	16c	16a
.	.	16d	16b
16r	.	[4e	[4cc
16E	.	.	.
16C	.	.	.
16E	.	.	.
4AA	.	8e]	8cc]
.	.	16c	16a
.	.	16d	16b
16r	.	4e	[4cc
16c	.	.	.
16A	.	.	.
16c	.	.	.
=40	=40	=40	=40
4F#	1r	8d	8cc]
.	.	16f#	16a
.	.	16g	16b
16r	.	[4a	[4cc
16A	.	.	.
16F#	.	.	.
16A	.	.	.
4D	.	8a]	8cc]
.	.	16f#	16a
.	.	16g	16b
16r	.	4a	4cc
16F#	.	.	.
16D	.	.	.
16F#	.	.	.
=41	=41	=41	=41
4GG	8G	4g	8b
.	16B	.	16dd
.	16A	.	16cc
16r	8B	8r	4dd
16GG	.	.	.
16BB	8G	16d	.
16GG	.	16e	.
4D	8A	8f#	8r
.	8D	16f#	16a
.	.	16g	16b
16r	4d	4a	4cc
16F#	.	.	.
16D	.	.	.
16F#	.	.	.
=42	=42	=42	=42
4GG	8G	4.g	8b
.	16B	.	16dd
.	16A	.	16cc
8r	8B	.	8dd
8GG	8G	8r	8cc#
8DD	8A	4.f#	8dd
8D	8D	.	4a
8C	4d	.	.
8BB	.	8g#	8b
=43	=43	=43	=43
4AA	8A	8e	4cc
.	16c	16a	.
.	16B	16g#	.
8r	8c	8a	8r
8D#	8A	8f#	8cc
16E	8B	8e	8g
16F	.	.	.
16D	8E	8g#	8b
16E	.	.	.
16C	4e	8a	8cc
16D	.	.	.
16BB	.	8b	8dd
16C	.	.	.
=44	=44	=44	=44
8AA	8A	4.e	4cc
16A	16c	.	.
16G#	16B	.	.
8A	8c	.	8r
8AA	8A	8f#	8dd#
[4E	8B	[4g#	8ee
.	8E	.	16dd
.	.	.	16cc
16E]	4e	4g#]	4b
16E	.	.	.
16D	.	.	.
16E	.	.	.
=45	=45	=45	=45
4AA	8c	8a	8cc
.	8e	8b	8dd
4C	8A	8a	8cc
.	8c	8g	8b
4D	8F#	8f#	8a
.	8A	8e	8g
4DD	8D	4f#	4a
.	8c	.	.
=46	=46	=46	=46
4GG	8B	8g	8b
.	8d	8a	8cc
4BB	8G	8g	8b
.	8B	8f#	8a
4C#	8E	8e	8g
.	8G	8d	8f#
4AA	8C#	4e	8g
.	8A	.	8cc#
=47	=47	=47	=47
4.DD	8F#	8d	8dd
.	16d	16f#	4a
.	16c#	16e	.
.	8d	8f#	.
8BB	8d	8g#	8b
4AA	8e	8a	4cc
.	16c	16e	.
.	16B	16d	.
8r	8c	8e	8r
8A	8c	8f#	8dd#
=48	=48	=48	=48
4.E	8B	8g	8ee
.	8A	8f#	8dd#
.	[4B	[4g	[4ee
8F#	.	.	.
8G	8B]	8g]	8ee]
8F#	8c	8a	8dd#
8G	8B	8g	8ee
8A	8c	8f#	8a
=49	=49	=49	=49
4B	4B	4e	4g
4BB	4A	4d#	4f#
4EE	4G	4B	8e
.	.	.	16g
.	.	.	16f#
4r	4r	4r	8g
.	.	.	8e
=50	=50	=50	=50
1r	1r	8B	8f#
.	.	16d#	8B
.	.	16c#	.
.	.	8d#	4b
.	.	8B	.
.	.	8G	8e
.	.	8E	16g
.	.	.	16f#
.	.	4e	8g
.	.	.	8e
=51	=51	=51	=51
1r	1r	8B	8f#
.	.	16d#	8B
.	.	16c#	.
.	.	8d#	4b
.	.	8B	.
.	.	8A	8f#
.	.	8F#	16a
.	.	.	16g#
.	.	4f#	8a
.	.	.	8f#
=52	=52	=52	=52
1r	1r	8c#	8g#
.	.	16e#	8c#
.	.	16d#	.
.	.	8e#	4cc#
.	.	8c#	.
.	.	8A	8f#
.	.	8F#	16a
.	.	.	16g#
.	.	4f#	8a
.	.	.	8f#
=53	=53	=53	=53
1r	1r	8c#	8g#
.	.	16e#	8c#
.	.	16d#	.
.	.	8e#	4cc#
.	.	8c#	.
.	.	8F#	8a
.	.	16A	8cc#
.	.	16G#	.
.	.	8A	8f#
.	.	8F#	8a
=54	=54	=54	=54
1r	1r	8B	8d#
.	.	16d#	8f#
.	.	16c#	.
.	.	8d#	8B
.	.	8B	8a
.	.	8E	8g
.	.	16G	8b
.	.	16F#	.
.	.	8G	8e
.	.	8E	8g
=55	=55	=55	=55
1r	1r	8A#	8c#
.	.	16c#	8e
.	.	16B	.
.	.	8c#	8A#
.	.	8A#	8f#
.	.	8A	16d#
.	.	.	16e
.	.	8D#	16f#
.	.	.	16g
.	.	8F#	16a
.	.	.	16cc
.	.	8D#	16b
.	.	.	16a
=56	=56	=56	=56
1r	1r	8E	16g#
.	.	.	16a
.	.	8G#	16b
.	.	.	16cc
.	.	8B	16dd
.	.	.	16ff
.	.	8G#	16ee
.	.	.	16dd
.	.	8A	16cc#
.	.	.	16dd
.	.	8c#	16ee
.	.	.	16ff
.	.	8e	16gg
.	.	.	16bb-
.	.	8c#	16aa
.	.	.	16gg
=57	=57	=57	=57
1r	1r	8A	16ff#
.	.	.	16gg
.	.	8c	16aa
.	.	.	16gg
.	.	8d#	16ff#
.	.	.	16ee
.	.	8f#	16dd#
.	.	.	16cc#
.	.	8b	16dd#
.	.	.	16ff#
.	.	8r	16b
.	.	.	16dd#
.	.	8a#	16ee
.	.	.	16gg
.	.	8r	16cc#
.	.	.	16ee
=58	=58	=58	=58
1r	1r	8b	16dd#
.	.	.	16ff#
.	.	8r	16b
.	.	.	16dd#
.	.	8a#	16ee
.	.	.	16gg
.	.	8r	16cc#
.	.	.	16ee
.	.	8b	16dd#
.	.	.	16ff#
.	.	8r	16b
.	.	.	16dd#
.	.	8g#	16ee
.	.	.	16dd
.	.	8r	16cc#
.	.	.	16b
=59	=59	=59	=59
1r	1r	8a	16cc#
.	.	.	16ee
.	.	8r	16a
.	.	.	16cc#
.	.	8g#	16dd
.	.	.	16ff
.	.	8r	16b
.	.	.	16dd
.	.	8a	16cc#
.	.	.	16ee
.	.	8r	16a
.	.	.	16cc#
.	.	8g#	16dd
.	.	.	16ff
.	.	8r	16b
.	.	.	16dd
=60	=60	=60	=60
1r	1r	8a	16cc#
.	.	.	16ee
.	.	8r	16a
.	.	.	16cc#
.	.	8f#	16dd
.	.	.	16cc
.	.	8r	16b
.	.	.	16a
.	.	8g	16b
.	.	.	16dd
.	.	8r	16g
.	.	.	16b
.	.	8f#	16cc
.	.	.	16ee-
.	.	8r	16a
.	.	.	16cc
=61	=61	=61	=61
1r	1r	8g	16b
.	.	.	16dd
.	.	8r	16g
.	.	.	16b
.	.	8f#	16cc
.	.	.	16ee-
.	.	8r	16a
.	.	.	16cc
.	.	8g	16b
.	.	.	16dd
.	.	8r	16g
.	.	.	16b
.	.	8e#	16cc#
.	.	.	16b
.	.	8r	16a#
.	.	.	16g#
=62	=62	=62	=62
1r	1r	8f#	16a#
.	.	.	16cc#
.	.	8r	16f#
.	.	.	16a#
.	.	8e#	16b
.	.	.	16dd
.	.	8r	16g#
.	.	.	16b
.	.	8f#	16a#
.	.	.	16cc#
.	.	8r	16f#
.	.	.	16a#
.	.	8e#	16b
.	.	.	16dd
.	.	8r	16g#
.	.	.	16b
=63	=63	=63	=63
1r	2r	8f#	16a#
.	.	.	16cc#
.	.	8e	16f#
.	.	.	16a#
.	.	8d	16b
.	.	.	16g
.	.	8c#	16f#
.	.	.	16e
.	4B	4d	8b
.	.	.	16dd
.	.	.	16cc#
.	4G#	4e#	8dd
.	.	.	8b
=64	=64	=64	=64
1r	4A	4f#	8cc#
.	.	.	8f#
.	8A#	4e	4ff#
.	8F#	.	.
.	4G	4d	8b
.	.	.	16dd
.	.	.	16cc#
.	4G#	4e#	8dd
.	.	.	8b
=65	=65	=65	=65
1r	4A#	4e	8cc#
.	.	.	8f#
.	4B#	4d#	4ff#
.	4c#	4e	8cc#
.	.	.	16ee
.	.	.	16dd#
.	4A#	4g	8ee
.	.	.	8cc#
=66	=66	=66	=66
1r	4B	4g#	8dd#
.	.	.	8g#
.	8B#	4f#	4gg#
.	8G#	.	.
.	4A	4e	8cc#
.	.	.	16ee
.	.	.	16dd#
.	4A#	4g	8ee
.	.	.	8cc#
=67	=67	=67	=67
1r	4B	4g#	8dd#
.	.	.	8g#
.	4B#	8f#	4gg#
.	.	8d#	.
.	4c#	4e	8ee
.	.	.	8gg#
.	8E	4g#	8cc#
.	8C#	.	8ee
=68	=68	=68	=68
1r	4F#	4f#	8a#
.	.	.	8cc#
.	4A#	4c#	8f#
.	.	.	8ee
.	4B	4d	8dd
.	.	.	8ff#
.	8D	4f#	8b
.	8BB	.	8dd
=69	=69	=69	=69
2r	4E	4e	8g#
.	.	.	8b
.	4G#	8B	8e
.	.	8b	8dd
8AA	4E	4a	4cc
16C	.	.	.
16BB	.	.	.
8C	8D#	4f#	8a
8AA	8c	.	8dd#
=70	=70	=70	=70
8BB	4.B	4g	[2ee
8EE	.	.	.
4E	.	4g#	.
.	8d	.	.
8AA	4c	4a	4ee]
16C	.	.	.
16BB	.	.	.
8C	8A	4f#	[4dd#
8AA	8c	.	.
=71	=71	=71	=71
8BB	4.B	4g	4dd#]
8EE	.	.	.
4E	.	8g#	8ee
.	8G	8a#	8cc#
8BB	4F#	4b	4dd
16D	.	.	.
16C#	.	.	.
8D	8E#	4g#	8b
8BB	8d	.	8ee#
=72	=72	=72	=72
8C#	4.c#	4a	[2ff#
8FF#	.	.	.
4F#	.	4a#	.
.	8e	.	.
8BB	4d	4b	4ff#]
16D	.	.	.
16C#	.	.	.
8D	8B	4g#	[4ee#
8BB	8d	.	.
=73	=73	=73	=73
8C#	4.c#	4a	8ee#]
8FF#	.	.	8ff#
4F#	.	4a#	[4ee
.	8e	.	.
8D	4F#	4b	4ee]
8F#	.	.	.
8BB	4G#	4ff#	[4dd
8D	.	.	.
=74	=74	=74	=74
8GG#	2B	4ee	2dd]
8BB	.	.	.
8EE	.	4g#	.
8D	.	.	.
8C	4E	4a	4cc
8E	.	.	.
8AA	4F#	4ee	4cc
8C	.	.	.
=75	=75	=75	=75
8FF#	2A	4dd#	8dd#
8AA	.	.	8cc
8DD#	.	[4f#	[4b
8G	.	.	.
4.E	4.G	8f#]	2b_
.	.	8f#	.
.	.	8e	.
8F#	8A	8d#	.
=76	=76	=76	=76
4.G	4.B	4.e	8b]
.	.	.	8b
.	.	.	8ee
8G#	8B	8f	8dd
8A	8A	8e	8cc
8G#	8B	8f	8dd
8A	8A	4e	8cc
8c	[8G	.	8b
=77	=77	=77	=77
2.F#	8G]	2c#	2a#
.	8G	.	.
.	8F#	.	.
.	8E	.	.
.	4B	4d#	8b
.	.	.	8cc
4D#	4B	4f#	8b
.	.	.	8a
=78	=78	=78	=78
4E	4B	4e	8g
.	.	.	8b
4G#	4B	4e	8ee
.	.	.	8dd
4A	4c	2e	8cc
.	.	.	4a
4c	4A	.	.
.	.	.	8g
=79	=79	=79	=79
4d	8A	4d	8f#
.	8F#	.	4a
4F#	4A	4d	.
.	.	.	8cc
8G	8G	8d	8b
8A	8c	8f#	8dd
8B	8d	8g	[4gg
8c	[8e	8a	.
=80	=80	=80	=80
4C#	4e]	4b-	8gg]
.	.	.	16ff#
.	.	.	16ee
8C	8d	8a	8ff#
8r	8r	8r	8r
8r	8r	8r	8r
8C	8f#	8a	8dd
8BB	8d	8g	8gg
8E	8c	8g	8cc
=81	=81	=81	=81
4D	4.d	4g	4b
4DD	.	4f#	4aT
.	8c	.	.
4GG	8B	4g	8g
.	16G	.	16b
.	16F#	.	16a
4EE	4G	4c#	8b
.	.	.	8g
=82	=82	=82	=82
4FF	8F	2d	8a
.	8A	.	8d
4FF#	8c	.	4dd
.	8A	.	.
4GG	8B	4d	8g
.	8d	.	16b
.	.	.	16a
4EE	4G	4c#	8b
.	.	.	8g
=83	=83	=83	=83
4FF#	8F#	4d	8a
.	8A	.	8d
4GG#	4B	4e	4dd
4AA	8c	4e	8a
.	16A	.	16cc
.	16G#	.	16b
4FF#	8A	4d#	8cc
.	8c	.	8a
=84	=84	=84	=84
4GG	2B	4e	8b
.	.	.	8e
4GG#	.	4d	4ee
4AA	4A	8c	8a
.	.	8e	16cc
.	.	.	16b
4FF#	8A	4d#	8cc
.	8c	.	8a
=85	=85	=85	=85
4GG#	4B	4e	8b
.	.	.	8e
4AA#	4c#	4f#	4ee
4BB	8d	4f#	8b
.	16B	.	16dd
.	16A#	.	16cc#
4GG#	8B	4e#	8dd
.	8d	.	8b
=86	=86	=86	=86
4AA	4.c#	4f#	8cc#
.	.	.	8f#
4AA#	.	4e	4ff#
.	8c#	.	.
4BB	4F#	8d	8b
.	.	16B	16dd
.	.	16A#	16cc#
4GG#	4E#	8B	8dd
.	.	8d	8b
=87	=87	=87	=87
4AA	4F#	4c#	8cc#
.	.	.	8f#
4AA#	4c#	4e	4ff#
4BB	4B	4d	8dd
.	.	.	16ff#
.	.	.	16ee
4FF#	4A	4d	8ff#
.	.	.	8dd
=88	=88	=88	=88
[4AA	8A	4c#	8ee
.	8E	.	8a
16AA]	4c#	4e	4aa
16C#	.	.	.
16BB	.	.	.
16C#	.	.	.
8FF#	4A	4.d	8dd
8DD	.	.	16ff#
.	.	.	16ee
4D	4A	.	8ff#
.	.	8f#	8dd
=89	=89	=89	=89
[4C#	4A	[4e	8ee
.	.	.	8a
16C#]	4A	16e]	4aa
16BB	.	16d	.
16C#	.	16e	.
16AA	.	16c#	.
4D	4A	4d	16ff#
.	.	.	16ee
.	.	.	16ff#
.	.	.	16aa
4DD	4f#	4a	16dd
.	.	.	16cc#
.	.	.	16dd
.	.	.	16ff#
=90	=90	=90	=90
4GG	4d	4g	16b
.	.	.	16a
.	.	.	16b
.	.	.	16cc
4BB	4d	4g	8g
.	.	.	8ff#
4EE	4c#	4g	16ee
.	.	.	16dd
.	.	.	16ee
.	.	.	16gg
4E	4e	4g	16cc#
.	.	.	16b
.	.	.	16cc#
.	.	.	16ee
=91	=91	=91	=91
4F#	4c#	4f#	16a#
.	.	.	16g#
.	.	.	16a#
.	.	.	16cc#
4AA#	4c#	4f#	8f#
.	.	.	8ee
4BB	4B	4f#	16dd
.	.	.	16cc#
.	.	.	16dd
.	.	.	16ff#
4B	4d	4f#	16b
.	.	.	16a
.	.	.	16b
.	.	.	16dd
=92	=92	=92	=92
4E	4B	4e	16g#
.	.	.	16f#
.	.	.	16g#
.	.	.	16b
4GG#	4B	4e	8e
.	.	.	8dd
4AA	4A	4e	16cc
.	.	.	16b
.	.	.	16cc
.	.	.	16ee
4A	4c	4e	16a
.	.	.	16g
.	.	.	16a
.	.	.	16cc
=93	=93	=93	=93
4D	4A	4d	16f#
.	.	.	16e
.	.	.	16f#
.	.	.	16a
4FF#	4A	4d	8d
.	.	.	8cc
8GG	8G	4d	16b
.	.	.	16dd
8r	16B	.	16g
.	16A	.	16f#
4r	8B	4r	16g
.	.	.	16b
.	8G	.	16dd
.	.	.	16gg
=94	=94	=94	=94
1r	8A	1r	16ff#
.	.	.	16ee
.	8D	.	16dd
.	.	.	16cc#
.	4d	.	16dd
.	.	.	16ff#
.	.	.	16aa
.	.	.	16ccc
.	8G	.	16bb
.	.	.	16dd
.	16B	.	16gg
.	16A	.	16ff#
.	8B	.	16gg
.	.	.	16dd
.	8G	.	16b
.	.	.	16g
=95	=95	=95	=95
1r	8A	1r	16f#
.	.	.	16e
.	8D	.	16f#
.	.	.	16a
.	4d	.	16g#
.	.	.	16f#
.	.	.	16g#
.	.	.	16b
.	8A	.	16cc
.	.	.	16ee
.	16c	.	16a
.	16B	.	16g#
.	8c	.	16a
.	.	.	16cc
.	8A	.	16ee
.	.	.	16aa
=96	=96	=96	=96
1r	8B	1r	16gg#
.	.	.	16ff#
.	8E	.	16ee
.	.	.	16dd#
.	4e	.	16ee
.	.	.	16bb
.	.	.	16gg#
.	.	.	16dd
.	8A	.	16cc
.	.	.	16ee
.	16c	.	16aa
.	16B	.	16gg#
.	8c	.	16aa
.	.	.	16ee
.	8A	.	16cc
.	.	.	16a
=97	=97	=97	=97
1r	8B	1r	16g#
.	.	.	16b
.	8E	.	16dd#
.	.	.	16ee
.	4e	.	16b
.	.	.	16dd
.	.	.	16cc
.	.	.	16b
.	8c	.	16a
.	.	.	16g#
.	8e	.	16a
.	.	.	16b
.	8A	.	16cc
.	.	.	16b
.	8c	.	16a
.	.	.	16g
=98	=98	=98	=98
1r	8F#	1r	16a
.	.	.	16g
.	8A	.	16f#
.	.	.	16e
.	8D	.	16f#
.	.	.	16e
.	8c	.	16f#
.	.	.	16a
.	8B	.	16g
.	.	.	16f#
.	8d	.	16g
.	.	.	16a
.	8G	.	16b
.	.	.	16a
.	8B	.	16g
.	.	.	16f#
=99	=99	=99	=99
1r	8E	1r	16g
.	.	.	16f#
.	8G	.	16e
.	.	.	16d#
.	8C	.	16e
.	.	.	16d#
.	8B	.	16e
.	.	.	16g
.	8A	.	16f#
.	.	.	16e
.	8c	.	16f#
.	.	.	16g
.	8F#	.	16a
.	.	.	16g
.	8A	.	16f#
.	.	.	16e
=100	=100	=100	=100
1r	8D#	1r	16f#
.	.	.	16e
.	8F#	.	16d#
.	.	.	16c#
.	8BB	.	16d#
.	.	.	16c#
.	8A	.	16d#
.	.	.	16f#
.	8G	.	16e
.	.	.	16d#
.	8B	.	16e
.	.	.	16f#
.	8E	.	16g
.	.	.	16f#
.	8G	.	16e
.	.	.	16d
=101	=101	=101	=101
1r	8C#	1r	16e
.	.	.	16d
.	8E	.	16c#
.	.	.	16B
.	8AA	.	16c#
.	.	.	16B
.	8G	.	16c#
.	.	.	16e
.	16F#	.	8d
.	16E	.	.
.	16F#	.	8dd
.	16G	.	.
.	16A	.	8f#
.	16G	.	.
.	16A	.	8a
.	16B	.	.
=102	=102	=102	=102
1r	16c	1r	8d
.	16B	.	.
.	16A	.	8cc
.	16G	.	.
.	16A	.	8f#
.	16G	.	.
.	16F#	.	8a
.	16E	.	.
.	16D	.	8d
.	16F#	.	.
.	16G	.	8dd
.	16A	.	.
.	16B	.	8cc
.	16c	.	.
.	16d	.	8b
.	16e	.	.
=103	=103	=103	=103
1r	16f#	1r	8a
.	16g	.	.
.	16a	.	16ff#
.	16g	.	16gg
.	16f#	.	8aa
.	16e	.	.
.	16d	.	8ff#
.	16c	.	.
.	16B	.	8gg
.	16d	.	.
.	16g	.	16ee
.	16f#	.	16dd
.	16e	.	8cc#
.	16d	.	.
.	16c#	.	8ee
.	16B	.	.
=104	=104	=104	=104
1r	8A	1r	8g
.	16B	.	8ee
.	16c#	.	.
.	16d	.	8f#
.	16e	.	.
.	16f#	.	8dd
.	16d	.	.
.	4B	.	16g
.	.	.	16ff#
.	.	.	16ee
.	.	.	16dd
.	4c#	.	8ee
.	.	.	8g
=105	=105	=105	=105
1r	4d	8f#	8dd
.	.	8a	16ff#
.	.	.	16ee
.	8r	[4d	8ff#
.	8B	.	8dd
.	4.A	4d]	8ee
.	.	.	8a
.	.	4c#	4aa
.	8G	.	.
=106	=106	=106	=106
1r	8F#	4d	8dd
.	8A	.	16ff#
.	.	.	16ee
.	8D	8r	8ff#
.	8d	8f#	8dd
.	4c#	4a	8ee
.	.	.	8a
.	4d#	4f#	4aa
=107	=107	=107	=107
1r	4e	8g	8ee
.	.	8b	16gg
.	.	.	16ff#
.	8r	[4e	8gg
.	8c	.	8ee
.	4.B	4e]	8ff#
.	.	.	8b
.	.	4d#	4bb
.	8A	.	.
=108	=108	=108	=108
1r	8G	8e	8ee
.	8B	8d#	16gg
.	.	.	16ff#
.	8E	8e	8gg
.	8e	8g	8ee
.	2d#	4.a	8ff#
.	.	.	8b
.	.	.	4bb
.	.	8f#	.
=109	=109	=109	=109
1r	4e	8e	8gg
.	.	16g	8bb
.	.	16f#	.
.	8r	8g	8ee
.	8B	8d	8gg
.	4A	8e	8cc#
.	.	16c#	8ee
.	.	16B	.
.	8r	8c#	8a
.	8c#	8e	8gg
=110	=110	=110	=110
1r	4d	8d	8ff#
.	.	16f#	8aa
.	.	16e	.
.	8r	8f#	8dd
.	8A	8c	8ff
.	4G#	8d	8b
.	.	16B	8dd
.	.	16A	.
.	8r	8B	8g#
.	8G#	8B	8ee
=111	=111	=111	=111
1r	4A	8A	8cc
.	.	16c	8ee
.	.	16B	.
.	8r	8c	8a
.	8E	8G	8cc
.	8D	8A	8f#
.	8E	16d	8a
.	.	16c#	.
.	8F#	8d	8d
.	8D	8f#	8cc
=112	=112	=112	=112
8GG	8G	4d	4b
16BB	16d	.	.
16AA	16c	.	.
8BB	4d	8r	8r
8GG	.	8b	[8gg
8AA	8c	8a	8gg]
8DD	8d	16a	16ff#
.	.	16g	16ee
4D	[4d	16a	16ff#
.	.	16b	16gg
.	.	16g	16ee
.	.	16a	16ff#
=113	=113	=113	=113
8GG	4d]	8b	4gg
16BB	.	16g	.
16AA	.	16f#	.
8BB	8r	8g	8r
8GG	8d	8b	[8gg
8AA	8c#	4.a	8gg]
8DD	16d	.	16ff#
.	16c#	.	16ee
4D	8d	.	8ff#
.	8f	8b	8gg#
=114	=114	=114	=114
8AA	8e	4cc	4aa
16C	16e	.	.
16BB	16d	.	.
8C	4e	8r	8r
8AA	.	8cc	[8aa
8BB	8d	8b	8aa]
8EE	8e	16b	16gg#
.	.	16a	16ff#
4E	[4e	16b	16gg#
.	.	16cc	16aa
.	.	16a	16ff#
.	.	16b	16gg#
=115	=115	=115	=115
8AA	4e]	8cc	8aa
16C	.	16a	8r
16BB	.	16g#	.
8C	8r	8a	8r
8AA	8e	8cc	[8aa
8BB	8d#	4.b	8aa]
8EE	16e	.	16gg#
.	16d#	.	16ff#
4E	16e	.	8gg#
.	16d	.	.
.	16c	8g#	8ee
.	16B	.	.
=116	=116	=116	=116
8C	8A	8e	8aa
8E	[8e	8g#	8bb
8AA	4e]	[2a	16ccc
.	.	.	16bb
8C	.	.	16aa
.	.	.	16gg
8FF#	8d	.	16aa
.	.	.	16gg
8AA	8c#	.	16ff#
.	.	.	16ee
8DD	[4d	16a]	8ff#
.	.	16g	.
8C	.	16f#	8aa
.	.	16e	.
=117	=117	=117	=117
8BB	4.d]	8d	8gg
8D	.	8f#	8aa
8GG	.	8g	16bb
.	.	.	16aa
8BB	8d#	8a	16gg
.	.	.	16ff#
8EE	8e	8b	8gg
8GG	8e	8cc#	8bb-
8CC#	8a	8ee	16aa
.	.	.	16gg
8EE	8g	8cc#	16ff#
.	.	.	16ee
=118	=118	=118	=118
8DD	8a	8dd	8ff#
8r	16d	8a	16ff#
.	16e	.	16gg
4r	8d	8dd	8ff#
.	8c	8ff#	8aa
8r	8B	8dd	8gg
16BB	16d	8g	16dd
16C	16c	.	16ee
8BB	[4d	8g	8dd
8AA	.	8f#	8cc
=119	=119	=119	=119
8GG	8d]	8g	8b
8r	8G	8B	16gg
.	.	.	16aa
4r	8A	8c	8gg
.	8B	8d	8ff
8r	8c	8c	8ee
16C	16c	8g	16ee
16D	16B	.	16ff
8C	8c	8g	8ee
8BB-	8d	8g	8gg
=120	=120	=120	=120
8AA	8e	8a	8cc#
8r	8A	8c#	16aa
.	.	.	16bb
4r	8B	8d	8aa
.	8c#	8e	8gg
8r	4d	8d	8ff#
16D	.	16f#	8aa
16E	.	16g	.
8D	8f#	4a	8dd
8C	[8d	.	8ff#
=121	=121	=121	=121
8BB	8d]	4.g	8gg
16BB	16d	.	16dd
16AA	16c	.	16ee
8BB	8d	.	8dd
8AA	8d	8f#	8cc
16GG	8d	8g	8b
16G	.	.	.
16F#	8B	8e	8ee
16G	.	.	.
16E	8e	8g	8b
16F#	.	.	.
8D#	[8B	8f#	8a
=122	=122	=122	=122
4E	4B]	8e	4g
.	.	16g	.
.	.	16f#	.
4C#	4A#	8g	4r
.	.	8e	.
4D	4B	8f#	2r
.	.	8B	.
8D#	4A	4b	.
8BB	.	.	.
=123	=123	=123	=123
4C	8G	8e	1r
.	8B	16g	.
.	.	16f#	.
4C#	4A#	8g	.
.	.	8e	.
4D#	4A	8f#	.
.	.	8B	.
4E#	4G#	4b	.
=124	=124	=124	=124
4F#	4A	8f#	1r
.	.	16a	.
.	.	16g#	.
4D#	4c	8a	.
.	.	8f#	.
4E	4c#	8g#	.
.	.	8c#	.
8E#	4B	4cc#	.
8C#	.	.	.
=125	=125	=125	=125
4D	4A	8f#	1r
.	.	16a	.
.	.	16g#	.
4D#	4c	8a	.
.	.	8f#	.
4E	4c#	8g#	.
.	.	8c#	.
4E#	8B	4cc#	.
.	8G#	.	.
=126	=126	=126	=126
4F#	4A	8a	1r
.	.	8cc#	.
4AA	4c#	8f#	.
.	.	8a	.
4BB	4B	8d#	.
.	.	8f#	.
4D#	4F#	8B	.
.	.	8a	.
=127	=127	=127	=127
4E	4G	8g	1r
.	.	8b	.
4GG	4B	8e	.
.	.	8g	.
4AA	4A	8c#	.
.	.	8e	.
4C#	4E	8A	.
.	.	8g	.
=128	=128	=128	=128
8D	8D	8f#	2r
8r	16F#	8a	.
.	16G	.	.
8r	16A	8cc	.
.	16B	.	.
8DD	16c	8f#	.
.	16A	.	.
8GG	8B	8g	8g
8r	8r	8d	16b
.	.	.	16cc
8r	4r	8d	16dd
.	.	.	16ee
8G	.	8B	16ff
.	.	.	16dd
=129	=129	=129	=129
8E	1r	4c	2ee
16c	.	.	.
16B	.	.	.
16c	.	[4a	.
16A	.	.	.
16c	.	.	.
16F#	.	.	.
16B	.	4a]	2dd
16F#	.	.	.
16B	.	.	.
16A	.	.	.
16B	.	[4g	.
16G	.	.	.
16B	.	.	.
16E	.	.	.
=130	=130	=130	=130
16A	2r	4g]	2cc
16E	.	.	.
16A	.	.	.
16G	.	.	.
16A	.	4f#	.
16F#	.	.	.
16A	.	.	.
16D	.	.	.
8G	8G	8d	8b
8GG	16B	16g	4dd
.	16A	16f#	.
8r	8B	8g	.
8C#	8G	8b-	8ee
=131	=131	=131	=131
8D	8A	8f#	4dd
16F#	8D	16a	.
16E	.	16g	.
8F#	4d	8a	4cc
8D	.	8f#	.
8G	8G	4.g	8b
8GG	16B	.	16dd
.	16A	.	16cc
8r	8B	.	8dd
8E	8G	8b-	8cc#
=132	=132	=132	=132
8F	8A	4a	8dd
8D	8D	.	8ff
8BB	4d	4g#	8ee
8E	.	.	8dd
8A	8A	8e	8cc
8AA	16c	16a	4ee
.	16B	16g#	.
8r	8c	8a	.
8D#	8A	8cc	8ff#
=133	=133	=133	=133
8E	8B	8g#	4ee
16G#	8E	16b	.
16F#	.	16a	.
8G#	4e	8b	4dd
8E	.	8g#	.
4A	8A	4.a	8cc
.	16c	.	16ee
.	16B	.	16dd#
8r	8c	.	8ee
8F#	8A	8cc	8dd#
=134	=134	=134	=134
4E	8B	4g#	4ee
.	8E	.	.
4G#	4B	[4b	[4ee
2A	8c	8b]	4ee]
.	8e	16a	.
.	.	16b	.
.	8A	8cc	4ee
.	8c	[8a	.
=135	=135	=135	=135
2D	8F#	2a_	8ee
.	8A	.	16dd
.	.	.	16ee
.	8D	.	8ff#
.	8c	.	[8dd
2GG	8B	8a]	2dd_
.	8d	16g	.
.	.	16a	.
.	8G	8b	.
.	8B	[8g	.
=136	=136	=136	=136
2AA	8E	2g]	8dd]
.	8G	.	16cc#
.	.	.	16dd
.	8C#	.	8ee
.	8A	.	8cc#
8D	4A	4f#	4dd
16F#	.	.	.
16E	.	.	.
16F#	8r	8r	8r
16D	.	.	.
8A	[8d	8f#	8cc
=137	=137	=137	=137
8D	4d]	4g	4b
16G	.	.	.
16F#	.	.	.
16G	8r	8r	8r
16D	.	.	.
8B	8d	8g	8dd
8D	4d	4f#	4cc
16A	.	.	.
16G	.	.	.
16A	8r	8r	8r
16D	.	.	.
8c	8f#	8a	8ee
=138	=138	=138	=138
8D	4g	4b	4dd
16B	.	.	.
16A	.	.	.
16B	8r	8r	8r
16D	.	.	.
8d	8g	8b	8dd
8C#	4g	4b-	4ee
16E	.	.	.
16D	.	.	.
16E	8r	8r	8r
16C#	.	.	.
8G	8e	8b-	8ee
=139	=139	=139	=139
8C	4f#	4a	4dd
16F#	.	.	.
16E	.	.	.
16F#	8r	8r	8r
16D	.	.	.
8A	8f#	8a	8dd
8BB	4d	4g	4dd
16D	.	.	.
16C	.	.	.
16D	8r	8r	8r
16BB	.	.	.
8G	[8d	8g	8b
=140	=140	=140	=140
4DD	2d]	4g	2a
4D	.	4f#	.
4G	4B	4d	4g
4D	4A 4d	4a	4cc 4dd 4ff#
=141	=141	=141	=141
4GG	4B 4d	4g 4b	4b 4dd
4r	4r	4r	4r
2r	2r	2r	2r
==	==	==	==
*-	*-	*-	*-
